!!!COM: Anonymous
!!!CDT: fl. XVI c. [?]
!!!OTL: Pyesn na smierc Hieronima Åaskiego
!!!ODT: after 1542
!!!TXO: Polish
!!!voices: 4
!!!pag:
!!!EFL:
!!!YEM: Creative Commons CC/BY/NC/SA 4.0
!!!ENC: Marcin Konik
!!!END: 2014-09-30
!!!EED: Marcin Konik
!!!EEV:
!!!ONB: Encoded in vim by Marcin Konik
!!!CharacterEncoding: utf-8
!!!RDF**kern: l=long note in original notation
!!!RDF**kern: i=editorial accidental
!!!RDF**kern: > = above
!!!RDF**kern: < = below
!!muse2ps: z14jc180F
!!title: @{CDT}, @{OTL}, ed. @{ENC}
**kern	**kern	**kern	**kern
*part4	*part3	*part2	*part1
*staff4	*staff3	*staff2	*staff1
*clefF4	*clefGv2	*clefGv2	*clefG2
*k[]	*k[]	*k[]	*k[]
*M2/1	*M2/1	*M2/1	*M2/1
=1-	=1-	=1-	=1-
1E	1E	1B	1e
2C	2G	2c	2e
2AA	[2A	2c	2e
=2	=2	=2	=2
1BB	2A]	1B	1d
.	2G#	.	.
1AA	1A	1E	1c
=3	=3	=3	=3
2AA	2A	2e	2cc
2AA	2A	2e	2cc
2E	2B	2e	2b
2E	2c	[2e	2g
=4	=4	=4	=4
1F	1A	2e]	1a
.	.	2d	.
1E	1B	1e	1g#
=5	=5	=5	=5
1D	1d	1f	1a
1D	1d	1f	1a
=6	=6	=6	=6
2F	1c	2f	2a
2C	.	2e	2g
1D	1A	1d	1f
=7	=7	=7	=7
2AA	2A	2c	2e
2A	2c	2c	2e
2F	1d	1f	1a
2D	.	.	.
=8	=8	=8	=8
2E	2B	2e	2g
2F	2A	2d	1a
1E	1B	1e	.
.	.	.	2g#
=9	=9	=9	=9
1AA	1A	1e	1a
2r	2r	2r	2r
2A	2c	2e	2a
=10	=10	=10	=10
1F	1A	1f	1cc
2G	2B	2d	2b
2C	2c	[2e	2g
=11	=11	=11	=11
1F	1A	2e]	1a
.	.	2d	.
2E	2B	2e	2g
2C	2c	2e	2g
=12	=12	=12	=12
1F	1A	2.c	1f
.	.	4d	.
2E	2B	2e	2g
2C	[2c	2e	2g
=13	=13	=13	=13
1G	2c]	1d	1g
.	2B	.	.
1C	1c	1c	1e
=14	=14	=14	=14
1D	1A	1F	1f
1AA	1c	1A	1e
=15	=15	=15	=15
2BB	2B	2D	2d
2C	1A	2E	1c
[1D	.	[1F	.
.	2G	.	2B
=16	=16	=16	=16
1D]	1A	1F]	1d
1E	1E	1G	1B
=17	=17	=17	=17
2AA	1E	2E	2c
2AA	.	2e	2c
1C	1E	1e	1c
=18	=18	=18	=18
2D	2F	2d	2f
2E	2G	2.c	1e
1F	1A	.	.
.	.	4B	.
.	.	2A	2d
=19	=19	=19	=19
1E	1G#	1B	1e
2r	2r	2r	2r
2AA	2A	2c	2e
=20	=20	=20	=20
2C	1G	2c	2e
2GG	.	2B	2d
1AA	1E	1A	1c
=21	=21	=21	=21
0EE	0E	0G#	0B
==	==	==	==
*-	*-	*-	*-
